X: 26
T: Miss McLeod's
Z: Paul McG
S: https://thesession.org/tunes/75#setting48556
R: reel
M: 4/4
L: 1/8
K: Amaj
cB|:A2 a2 fefa|c2 cB c2cB|A2 a2 fefa|B2 BA BdcB|
A2 a2 fefa|c2 cB c2 e2|f2 fg f2ef|afec BdcB:|
|:ABcd eAcA|c2 cB c2cB|ABcd eAcA B2 BA BdcB|
ABcd eAcA|c2 cB c2 e2|f2 fe f2ef|afec BdcB:|
|:A2 a2 fefa|c2 cB c2cB|A2 a2 fefa|B2 BA BdcB|
A2 a2 fefa|c2 cB c2 e2|f2 fg f2ef|afec BdcB:|
|:ABcd eAcA|c2 cB c2cB|ABcd eAcA B2 BA BdcB|
ABcd eAcA|c2 cB c2 e2|f2 fe f2ef|1 afec BdcB:|2 afec BdcB|A8||

